public/images/home/Notifications-2.svg

<svg width="32" height="32" viewBox="0 0 32 32" fill="none" xmlns="http://www.w3.org/2000/svg">
<g filter="url(#filter0_b_58_827)">
<rect width="32" height="32" rx="16" fill="#C3C3C3" fill-opacity="0.3" style="mix-blend-mode:luminosity"/>
<rect x="0.5" y="0.5" width="31" height="31" rx="15.5" stroke="url(#paint0_linear_58_827)"/>
<path d="M11.2 11.1992C10.7756 11.1992 10.3687 11.3678 10.0686 11.6678C9.76855 11.9679 9.59998 12.3749 9.59998 12.7992V13.5992H22.4V12.7992C22.4 12.3749 22.2314 11.9679 21.9313 11.6678C21.6313 11.3678 21.2243 11.1992 20.8 11.1992H11.2Z" fill="white"/>
<path fill-rule="evenodd" clip-rule="evenodd" d="M22.4 15.1992H9.59998V19.1992C9.59998 19.6236 9.76855 20.0305 10.0686 20.3306C10.3687 20.6306 10.7756 20.7992 11.2 20.7992H20.8C21.2243 20.7992 21.6313 20.6306 21.9313 20.3306C22.2314 20.0305 22.4 19.6236 22.4 19.1992V15.1992ZM11.2 18.3992C11.2 18.187 11.2843 17.9836 11.4343 17.8335C11.5843 17.6835 11.7878 17.5992 12 17.5992H12.8C13.0121 17.5992 13.2156 17.6835 13.3657 17.8335C13.5157 17.9836 13.6 18.187 13.6 18.3992C13.6 18.6114 13.5157 18.8149 13.3657 18.9649C13.2156 19.1149 13.0121 19.1992 12.8 19.1992H12C11.7878 19.1992 11.5843 19.1149 11.4343 18.9649C11.2843 18.8149 11.2 18.6114 11.2 18.3992ZM15.2 17.5992C14.9878 17.5992 14.7843 17.6835 14.6343 17.8335C14.4843 17.9836 14.4 18.187 14.4 18.3992C14.4 18.6114 14.4843 18.8149 14.6343 18.9649C14.7843 19.1149 14.9878 19.1992 15.2 19.1992H16C16.2121 19.1992 16.4156 19.1149 16.5657 18.9649C16.7157 18.8149 16.8 18.6114 16.8 18.3992C16.8 18.187 16.7157 17.9836 16.5657 17.8335C16.4156 17.6835 16.2121 17.5992 16 17.5992H15.2Z" fill="white"/>
</g>
<defs>
<filter id="filter0_b_58_827" x="-115.377" y="-115.377" width="262.754" height="262.754" filterUnits="userSpaceOnUse" color-interpolation-filters="sRGB">
<feFlood flood-opacity="0" result="BackgroundImageFix"/>
<feGaussianBlur in="BackgroundImageFix" stdDeviation="57.6885"/>
<feComposite in2="SourceAlpha" operator="in" result="effect1_backgroundBlur_58_827"/>
<feBlend mode="normal" in="SourceGraphic" in2="effect1_backgroundBlur_58_827" result="shape"/>
</filter>
<linearGradient id="paint0_linear_58_827" x1="2.24176" y1="-7.09502e-06" x2="17.4878" y2="35.0987" gradientUnits="userSpaceOnUse">
<stop stop-color="white" stop-opacity="0.25"/>
<stop offset="0.605751" stop-color="white" stop-opacity="0.02"/>
<stop offset="0.701033" stop-color="white" stop-opacity="0.02"/>
<stop offset="1" stop-color="white" stop-opacity="0.1"/>
</linearGradient>
</defs>
</svg>

<svg xmlns="http://www.w3.org/2000/svg" width="32" height="32" fill="none" xmlns:v="https://vecta.io/nano"><g filter="url(#B)"><rect width="32" height="32" rx="16" fill="#c3c3c3" fill-opacity=".3" style="mix-blend-mode:luminosity"/><rect x=".5" y=".5" width="31" height="31" rx="15.5" stroke="url(#A)"/><path d="M11.2 11.2a1.6 1.6 0 0 0-1.6 1.6v.8h12.8v-.8a1.6 1.6 0 0 0-1.6-1.6h-9.6z" fill="#fff"/><path fill-rule="evenodd" d="M22.4 15.2H9.6v4a1.6 1.6 0 0 0 1.6 1.6h9.6a1.6 1.6 0 0 0 1.6-1.6v-4zm-11.2 3.2a.8.8 0 0 1 .8-.8h.8a.8.8 0 0 1 0 1.6H12a.8.8 0 0 1-.8-.8zm4-.8a.8.8 0 1 0 0 1.6h.8a.8.8 0 0 0 0-1.6h-.8z" fill="#fff"/></g><defs><linearGradient id="A" x1="2.242" y1="0" x2="17.488" y2="35.099" gradientUnits="userSpaceOnUse"><stop stop-color="#fff" stop-opacity=".25"/><stop offset=".606" stop-color="#fff" stop-opacity=".02"/><stop offset=".701" stop-color="#fff" stop-opacity=".02"/><stop offset="1" stop-color="#fff" stop-opacity=".1"/></linearGradient><filter id="B" x="-115.377" y="-115.377" width="262.754" height="262.754" filterUnits="userSpaceOnUse" color-interpolation-filters="sRGB"><feFlood flood-opacity="0"/><feGaussianBlur stdDeviation="57.688"/><feComposite in2="SourceAlpha" operator="in"/><feBlend in="SourceGraphic"/></filter></defs></svg>
